X:1362
T:Kyrklåt från Västmanland
T:Säckpipemarsch från Värmland
Z:Karen Myers (#2277)
M:2/4
L:1/16
R:Gånglåt
O:Västmanland, Värmland
K:Dm
DE |: F2EF D2EF | G2FG E2FG | A2BA GFEF | D2D2 A,2DE |
F2EF D2EF | G2FG E2FG | A2BA GFEF |1 D4 D2DE :|2 D4 D2D^F ||[K:D]
|: A2FA =cBGB | A2ce d2FG | A2FA =cBGB | A2AG F2FG |
A2FA =cBGB | A2ce d2FG | A2BA GFEF |1 D4 D2DF :|2 D4 D2 z2 |]
(:musicend:)

(:music:)
